documentation/images/talk.svg

<svg fill="none" height="48" viewBox="0 0 48 48" width="48" xmlns="http://www.w3.org/2000/svg"><circle cx="24" cy="24" fill="#1da1f2" r="24"/><path clip-rule="evenodd" d="m21.802 15 4.148.01c4.3701 0 7.7939 3.42 7.8 7.787v.017c-.0029 2.342-1.1411 4.702-3.043 6.312-1.615 1.366-7.8239 5.338-8.0881 5.506-.125.08-.2639.118-.4019.118-.248 0-.4899-.122-.632-.347-.076-.117-.1199-.295-.1199-.403v-3.828c-4.2791-.164-7.4651-3.272-7.4651-7.37 0-4.375 3.426-7.802 7.8-7.802zm1.1631 17.625c1.9099-1.238 5.6379-3.683 6.772-4.643 1.573-1.332 2.5119-3.266 2.5149-5.176-.002-3.53-2.7701-6.296-6.302-6.296h-.002l-4.147-.01c-3.532 0-6.3 2.768-6.3 6.302 0 3.41 2.6579 5.886 6.3181 5.886h.396c.4148 0 .75.336.75.75z" fill="#fff" fill-rule="evenodd"/></svg>

<svg width="48" height="48" viewBox="0 0 48 48" fill="none" xmlns="http://www.w3.org/2000/svg">
<circle cx="24" cy="24" r="24" fill="#1DA1F2"/>
<path fill-rule="evenodd" clip-rule="evenodd" d="M21.802 15L25.95 15.01C30.3201 15.01 33.7439 18.43 33.75 22.797V22.814C33.7471 25.156 32.6089 27.516 30.707 29.126C29.092 30.492 22.8831 34.464 22.6189 34.632C22.4939 34.712 22.355 34.75 22.217 34.75C21.969 34.75 21.7271 34.628 21.585 34.403C21.509 34.286 21.4651 34.108 21.4651 34V30.172C17.186 30.008 14 26.9 14 22.802C14 18.427 17.426 15 21.8 15H21.802ZM22.9651 32.625C24.875 31.387 28.603 28.942 29.7371 27.982C31.3101 26.65 32.249 24.716 32.252 22.806C32.25 19.276 29.4819 16.51 25.95 16.51H25.948L21.801 16.5C18.269 16.5 15.501 19.268 15.501 22.802C15.501 26.212 18.1589 28.688 21.8191 28.688H22.2151C22.6299 28.688 22.9651 29.024 22.9651 29.438V32.625Z" fill="white"/>
</svg>
